;FLAVOR:Marlin
;TIME:4953
;Filament used: 3.88468m
;Layer height: 0.15
;Generated with Cura_SteamEngine 2.7.0
M104 S205
M109 S205
G21 ;metric values
G90 ;absolute positioning
M82 ;set extruder to absolute mode
M107 ;start with the fan off
G28 ;Home all axes (max endstops)
G1 Z15.0 F9000 ;move the platform down 15mm
G92 E0 ;zero the extruded length
G1 F200 E3 ;extrude 3mm of feed stock
G92 E0 ;zero the extruded length again
G1 F9000
;Put printing message on LCD screen
M117 Printing...
;LAYER_COUNT:80
;LAYER:0
M107
G0 F2400 X-19.491 Y13.35 Z0.2
;TYPE:SKIRT
G1 F2100 X-19.671 Y13.239 E0.00615
G1 X-21.286 Y12.173 E0.06247
G1 X-21.671 Y11.879 E0.07657
G1 X-22.934 Y10.769 E0.1255
G1 X-23.234 Y10.471 E0.13781
G1 X-23.869 Y9.761 E0.16553
G1 X-24.057 Y9.532 E0.17415
G1 X-25.068 Y8.19 E0.22305
G1 X-25.324 Y7.8 E0.23663
G1 X-26.176 Y6.289 E0.28711
G1 X-26.346 Y5.944 E0.2983
G1 X-26.806 Y4.868 E0.33236
G1 X-26.93 Y4.532 E0.34278
G1 X-27.367 Y3.132 E0.38547
G1 X-27.464 Y2.746 E0.39705
G1 X-27.733 Y1.343 E0.43862
G1 X-27.793 Y0.827 E0.45374
G1 X-27.883 Y-1.312 E0.51605
G1 X-27.873 Y-1.766 E0.52926
G1 X-27.746 Y-3.225 E0.57188
G1 X-27.675 Y-3.683 E0.58537
G1 X-27.296 Y-5.391 E0.63629
G1 X-27.17 Y-5.825 E0.64944
G1 X-26.614 Y-7.363 E0.69704
G1 X-26.429 Y-7.786 E0.71047
G1 X-25.646 Y-9.298 E0.76003
G1 X-25.435 Y-9.653 E0.77204
G1 X-24.627 Y-10.847 E0.814
G1 X-24.358 Y-11.196 E0.82682
G1 X-23.25 Y-12.459 E0.87572
G1 X-22.922 Y-12.786 E0.8892
G1 X-21.651 Y-13.899 E0.93837
G1 X-21.317 Y-14.158 E0.95067
G1 X-20.5 Y-14.716 E0.97946
G1 X-20.279 Y-14.855 E0.98706
G1 X4.086 Y-28.965 E1.80646
G1 X4.564 Y-29.196 E1.82191
G1 X5.072 Y-29.352 E1.83738
G1 X5.38 Y-29.408 E1.84649
G1 X10.553 Y-30.108 E1.99841
G1 X11.025 Y-30.14 E2.01218
G1 X16.005 Y-30.141 E2.15711
G1 X16.253 Y-30.132 E2.16433
G1 X17.377 Y-30.053 E2.19712
G1 X17.902 Y-29.976 E2.21257
G1 X18.221 Y-29.889 E2.22219
G1 X19.57 Y-29.45 E2.26348
G1 X20.061 Y-29.248 E2.27893
G1 X20.365 Y-29.076 E2.28909
G1 X21.537 Y-28.334 E2.32946
G1 X21.962 Y-28.017 E2.34489
G1 X22.204 Y-27.787 E2.35461
G1 X23.145 Y-26.799 E2.39432
G1 X23.481 Y-26.388 E2.40977
G1 X23.652 Y-26.118 E2.41907
G1 X24.312 Y-24.964 E2.45776
G1 X24.54 Y-24.485 E2.47319
G1 X24.643 Y-24.177 E2.48265
G1 X25.025 Y-22.832 E2.52334
G1 X25.131 Y-22.312 E2.53878
G1 X25.158 Y-21.941 E2.54961
G1 X25.277 Y-16.149 E2.7182
G1 X25.586 Y-10.684 E2.8775
G1 X26.205 Y-5.232 E3.03719
G1 X27.129 Y0.152 E3.19617
G1 X27.691 Y2.766 E3.27398
G1 X28.344 Y5.43 E3.35381
G1 X29.88 Y10.716 E3.51401
G1 X30.731 Y13.239 E3.5915
G1 X32.437 Y17.738 E3.73153
G1 X32.633 Y18.506 E3.75459
G1 X32.793 Y19.664 E3.78862
G1 X32.826 Y20.193 E3.80404
G1 X32.799 Y20.584 E3.81545
G1 X32.653 Y21.75 E3.84965
G1 X32.547 Y22.27 E3.86509
G1 X32.419 Y22.643 E3.87657
G1 X31.977 Y23.727 E3.91064
G1 X31.74 Y24.202 E3.92609
G1 X31.522 Y24.525 E3.93743
G1 X30.814 Y25.459 E3.97153
G1 X30.463 Y25.857 E3.98698
G1 X30.153 Y26.125 E3.9989
G1 X28.67 Y27.265 E4.05334
G1 X28.226 Y27.556 E4.06879
G1 X27.852 Y27.734 E4.08085
G1 X27.015 Y28.075 E4.10715
G1 X26.51 Y28.238 E4.12259
G1 X25.963 Y28.325 E4.13871
G1 X22.498 Y28.599 E4.23987
G1 X17.158 Y29.257 E4.39645
G1 X16.727 Y29.283 E4.40902
G1 X10.711 Y29.283 E4.5841
G1 X10.182 Y29.243 E4.59954
G1 X9.458 Y29.053 E4.62132
G1 X4.61 Y27.209 E4.77227
G1 X4.101 Y26.967 E4.78867
G1 X-19.491 Y13.35 E5.58142
G0 F2400 X-19.316 Y13.047
G1 F2100 X-19.478 Y12.947 E5.58696
G1 X-21.093 Y11.881 E5.64328
G1 X-21.44 Y11.616 E5.65599
G1 X-22.703 Y10.506 E5.70492
G1 X-22.974 Y10.238 E5.71601
G1 X-23.609 Y9.528 E5.74373
G1 X-23.778 Y9.321 E5.75151
G1 X-24.789 Y7.979 E5.80041
G1 X-25.019 Y7.628 E5.81262
G1 X-25.871 Y6.117 E5.8631
G1 X-26.024 Y5.806 E5.87319
G1 X-26.484 Y4.73 E5.90725
G1 X-26.596 Y4.428 E5.91662
G1 X-27.033 Y3.028 E5.9593
G1 X-27.12 Y2.68 E5.96974
G1 X-27.389 Y1.277 E6.01132
G1 X-27.443 Y0.812 E6.02494
G1 X-27.533 Y-1.327 E6.08725
G1 X-27.524 Y-1.735 E6.09912
G1 X-27.397 Y-3.194 E6.14174
G1 X-27.334 Y-3.607 E6.1539
G1 X-26.955 Y-5.315 E6.20482
G1 X-26.841 Y-5.706 E6.21667
G1 X-26.285 Y-7.244 E6.26427
G1 X-26.118 Y-7.625 E6.27637
G1 X-25.335 Y-9.137 E6.32593
G1 X-25.145 Y-9.456 E6.33673
G1 X-24.337 Y-10.65 E6.37869
G1 X-24.095 Y-10.965 E6.39025
G1 X-22.987 Y-12.228 E6.43915
G1 X-22.692 Y-12.523 E6.45129
G1 X-21.421 Y-13.636 E6.50046
G1 X-21.12 Y-13.869 E6.51153
G1 X-20.303 Y-14.427 E6.54033
G1 X-20.103 Y-14.553 E6.54721
G1 X4.262 Y-28.663 E7.36661
G1 X4.716 Y-28.88 E7.38126
G1 X5.427 Y-29.061 E7.40261
G1 X10.6 Y-29.761 E7.55453
G1 X11.025 Y-29.79 E7.56692
G1 X16.005 Y-29.791 E7.71186
G1 X16.229 Y-29.783 E7.71838
G1 X17.353 Y-29.704 E7.75117
G1 X17.851 Y-29.629 E7.76583
G1 X18.113 Y-29.556 E7.77374
G1 X19.462 Y-29.117 E7.81503
G1 X19.927 Y-28.924 E7.82968
G1 X20.177 Y-28.781 E7.83806
G1 X21.349 Y-28.039 E7.87843
G1 X21.752 Y-27.736 E7.89311
G1 X21.95 Y-27.546 E7.90109
G1 X22.891 Y-26.558 E7.9408
G1 X23.208 Y-26.167 E7.95545
G1 X23.348 Y-25.944 E7.96311
G1 X24.008 Y-24.79 E8.0018
G1 X24.223 Y-24.335 E8.01645
G1 X24.306 Y-24.081 E8.02422
G1 X24.688 Y-22.736 E8.06491
G1 X24.787 Y-22.243 E8.07955
G1 X24.808 Y-21.934 E8.08856
G1 X24.927 Y-16.151 E8.2569
G1 X25.238 Y-10.65 E8.41725
G1 X25.858 Y-5.188 E8.57723
G1 X26.784 Y0.216 E8.73679
G1 X27.351 Y2.847 E8.81512
G1 X28.006 Y5.521 E8.89524
G1 X29.548 Y10.829 E9.0561
G1 X30.402 Y13.359 E9.13381
G1 X32.11 Y17.862 E9.27397
G1 X32.286 Y18.553 E9.29472
G1 X32.446 Y19.711 E9.32874
G1 X32.475 Y20.214 E9.34341
G1 X32.451 Y20.54 E9.35292
G1 X32.305 Y21.706 E9.38712
G1 X32.203 Y22.2 E9.4018
G1 X32.095 Y22.511 E9.41138
G1 X31.653 Y23.595 E9.44545
G1 X31.426 Y24.045 E9.46012
G1 X31.243 Y24.314 E9.46958
G1 X30.535 Y25.248 E9.50369
G1 X30.2 Y25.624 E9.51835
G1 X29.94 Y25.847 E9.52832
G1 X28.457 Y26.987 E9.58276
G1 X28.035 Y27.261 E9.5974
G1 X27.72 Y27.41 E9.60754
G1 X26.883 Y27.751 E9.63384
G1 X26.403 Y27.904 E9.6485
G1 X25.935 Y27.976 E9.66228
G1 X22.451 Y28.252 E9.764
G1 X17.115 Y28.909 E9.92046
G1 X16.727 Y28.933 E9.93177
G1 X10.711 Y28.933 E10.10685
G1 X10.209 Y28.893 E10.12151
G1 X9.582 Y28.726 E10.14039
G1 X4.734 Y26.882 E10.29134
G1 X4.276 Y26.664 E10.30611
G1 X-19.316 Y13.047 E11.09886
G1 F2400 E6.59886
G0 F2400 X5.654 Y24.539
G0 X6.488 Y24.057
G0 X6.491 Y14.853
G0 X6.03 Y14.368
G0 X-2.835 Y11.657
G0 X-7.648 Y5.83
;TYPE:SUPPORT
G1 F2400 E11.09886
G1 F2100 X-8.375 Y4.184 E11.15122
G1 X-9.031 Y3.921 E11.17179
G1 X-9.758 Y2.163 E11.22716
G1 X-8.182 Y1.509 E11.27681
G1 X-7.494 Y3.172 E11.32919
G1 X-8.199 Y3.465 E11.35141
G1 X-8.366 Y3.943 E11.36614
G1 X-6.647 Y6.974 E11.46755
G1 X-6.55 Y7.319 E11.47798
G1 X-4.842 Y9.272 E11.55349
G1 X-3.745 Y10.305 E11.59734
G1 X-2.555 Y11.218 E11.64099
G1 X-1.304 Y11.992 E11.6838
G1 X0.048 Y12.652 E11.72759
G1 X1.439 Y13.167 E11.77076
G1 X2.871 Y13.538 E11.81381
G1 X4.376 Y13.771 E11.85813
G1 X5.854 Y13.849 E11.9012
G1 X5.854 Y14.146 E11.90985
G1 X4.357 Y14.069 E11.95347
G1 X2.836 Y13.841 E11.99823
G1 X1.357 Y13.461 E12.04267
G1 X-0.065 Y12.938 E12.08676
G1 X-1.419 Y12.282 E12.13055
G1 X-2.72 Y11.479 E12.17504
G1 X-3.906 Y10.572 E12.2185
G1 X-5.029 Y9.517 E12.26334
G1 X-6.025 Y8.378 E12.30737
G1 X-6.916 Y7.12 E12.35224
G1 X-7.648 Y5.83 E12.3954
G0 F2400 X-9.332 Y2.826
G1 F2100 X-9.332 Y2.138 E12.41542
G0 F2400 X-9.537 Y2.332
G1 F2100 X-7.992 Y2.332 E12.46039
G1 F2400 E7.96039
G0 F2400 X-7.851 Y4.094
G0 X-7.206 Y5.565
G0 X-6.466 Y6.864
G0 X-5.626 Y8.046
G0 X-4.661 Y9.153
G0 X-3.594 Y10.155
G0 X-2.423 Y11.052
G0 X-1.182 Y11.818
G0 X0.132 Y12.458
G0 X1.554 Y12.977
G0 X2.948 Y13.339
G0 X4.398 Y13.56
G0 X5.969 Y13.64
G0 X6.49 Y13.144
G0 X6.491 Y7.354
G0 X6.038 Y6.871
G0 X-1.534 Y0.966
G1 F2400 E12.46039
G1 F2100 X-1.723 Y-0.014 E12.48943
G1 X-1.788 Y-.993 E12.51799
G1 X-1.728 Y-2.003 E12.54743
G1 X-1.527 Y-3 E12.57703
G1 X-1.209 Y-3.925 E12.6055
G1 X-.764 Y-4.837 E12.63503
G1 X-.213 Y-5.66 E12.66386
G1 X0.47 Y-6.431 E12.69383
G1 X1.2 Y-7.07 E12.72207
G1 X2.03 Y-7.626 E12.75114
G1 X2.947 Y-8.074 E12.78084
G1 X3.922 Y-8.393 E12.8107
G1 X4.894 Y-8.588 E12.83955
G1 X5.854 Y-8.652 E12.86755
G1 X5.854 Y-7.989 E12.88684
G1 X5.747 Y-7.873 E12.89144
G1 X4.932 Y-7.82 E12.91521
G1 X4.048 Y-7.638 E12.94147
G1 X3.236 Y-7.366 E12.96639
G1 X2.423 Y-6.963 E12.9928
G1 X1.658 Y-6.45 E13.01961
G1 X0.984 Y-5.859 E13.0457
G1 X0.422 Y-5.212 E13.07064
G1 X-.108 Y-4.427 E13.0982
G1 X-.508 Y-3.616 E13.12452
G1 X-.777 Y-2.823 E13.14889
G1 X-.963 Y-1.913 E13.17592
G1 X-1.021 Y-.951 E13.20397
G1 X-.971 Y-.136 E13.22773
G1 X-.793 Y0.758 E13.25426
G1 X-.498 Y1.64 E13.28132
G1 X-.102 Y2.434 E13.30715
G1 X0.398 Y3.183 E13.33336
G1 X0.998 Y3.868 E13.35986
G1 X1.658 Y4.445 E13.38537
G1 X2.427 Y4.962 E13.41234
G1 X3.227 Y5.35 E13.43821
G1 X4.043 Y5.634 E13.46336
G1 X4.96 Y5.815 E13.49056
G1 X5.742 Y5.87 E13.51337
G1 X5.854 Y5.988 E13.51811
G1 X5.854 Y6.644 E13.5372
G1 X4.855 Y6.58 E13.56633
G1 X3.89 Y6.387 E13.59497
G1 X2.911 Y6.052 E13.62509
G1 X2.038 Y5.623 E13.6534
G1 X1.211 Y5.076 E13.68225
G1 X0.456 Y4.414 E13.71147
G1 X-.227 Y3.634 E13.74165
G1 X-.251 Y3.598 E13.74291
G1 X-.781 Y2.798 E13.77083
G1 X-1.204 Y1.934 E13.79883
G1 X-1.534 Y0.966 E13.82859
G0 F2400 X-1.579 Y0.00
G1 F2100 X-1.087 Y0.00 E13.84291
G0 F2400 X-1.02 Y-2.333
G1 F2100 X-1.517 Y-2.333 E13.85738
G0 F2400 X-.69 Y-4.666
G1 F2100 X-.115 Y-4.666 E13.87411
G0 F2400 X0.00 Y-4.837
G1 F2100 X0.00 Y-5.69 E13.89893
G0 F2400 X1.344 Y-6.999
G1 F2100 X2.223 Y-6.999 E13.92452
G0 F2400 X2.333 Y-7.071
G1 F2100 X2.333 Y-7.619 E13.94046
G0 F2400 X4.666 Y-7.908
G1 F2100 X4.666 Y-8.4 E13.95478
G0 F2400 X-.308 Y2.333
G1 F2100 X-.852 Y2.333 E13.97061
G0 F2400 X0.00 Y2.841
G1 F2100 X0.00 Y3.675 E13.99489
G0 F2400 X0.954 Y4.666
G1 F2100 X1.736 Y4.666 E14.01764
G0 F2400 X2.333 Y5.067
G1 F2100 X2.333 Y5.611 E14.03348
G0 F2400 X4.666 Y5.901
G1 F2100 X4.666 Y6.399 E14.04797
G0 F2400 X8.514 Y6.565
G1 F2100 X8.62 Y6.451 E14.0525
G1 X9.422 Y6.398 E14.07589
G1 X10.312 Y6.218 E14.10232
G1 X11.162 Y5.923 E14.1285
G1 X11.945 Y5.537 E14.15391
G1 X12.688 Y5.042 E14.17989
G1 X13.388 Y4.425 E14.20705
G1 X13.963 Y3.766 E14.2325
G1 X14.485 Y2.995 E14.2596
G1 X14.864 Y2.223 E14.28462
G1 X15.156 Y1.361 E14.31111
G1 X15.325 Y0.515 E14.33622
G1 X15.386 Y-.466 E14.36482
G1 X15.329 Y-1.333 E14.39011
G1 X15.166 Y-2.183 E14.4153
G1 X14.862 Y-3.065 E14.44245
G1 X14.462 Y-3.871 E14.46863
G1 X13.969 Y-4.61 E14.49449
G1 X13.377 Y-5.29 E14.52073
G1 X12.724 Y-5.855 E14.54586
G1 X11.94 Y-6.385 E14.5734
G1 X11.138 Y-6.776 E14.59936
G1 X10.289 Y-7.066 E14.62547
G1 X9.436 Y-7.244 E14.65083
G1 X8.622 Y-7.299 E14.67458
G1 X8.514 Y-7.414 E14.67917
G1 X8.518 Y-8.071 E14.69829
G1 X8.842 Y-8.051 E14.70774
G1 X9.617 Y-7.983 E14.73038
G1 X10.493 Y-7.809 E14.75637
G1 X11.399 Y-7.502 E14.78421
G1 X12.341 Y-7.044 E14.81469
G1 X13.172 Y-6.489 E14.84377
G1 X13.895 Y-5.854 E14.87178
G1 X14.58 Y-5.081 E14.90184
G1 X15.141 Y-4.237 E14.93133
G1 X15.57 Y-3.369 E14.95951
G1 X15.902 Y-2.39 E14.98959
G1 X16.082 Y-1.474 E15.01676
G1 X16.152 Y-.4 E15.04808
G1 X16.09 Y0.583 E15.07675
G1 X15.871 Y1.614 E15.10742
G1 X15.579 Y2.506 E15.13474
G1 X15.128 Y3.414 E15.16424
G1 X14.576 Y4.238 E15.19311
G1 X13.926 Y4.981 E15.22184
G1 X13.183 Y5.636 E15.25066
G1 X12.346 Y6.198 E15.28
G1 X11.442 Y6.64 E15.30929
G1 X10.498 Y6.96 E15.3383
G1 X9.535 Y7.152 E15.36687
G1 X8.514 Y7.223 E15.39666
G1 X8.514 Y6.565 E15.41581
G0 F2400 X8.654 Y6.999
G1 F2100 X9.582 Y6.999 E15.44282
G0 F2400 X9.332 Y7.026
G1 F2100 X9.332 Y6.544 E15.45684
G0 F2400 X11.665 Y6.376
G1 F2100 X11.665 Y5.832 E15.47268
G0 F2400 X13.326 Y4.666
G1 F2100 X14.014 Y4.666 E15.4927
G0 F2400 X13.998 Y4.687
G1 F2100 X13.998 Y3.939 E15.51447
G0 F2400 X14.966 Y2.333
G1 F2100 X15.488 Y2.333 E15.52966
G0 F2400 X15.498 Y0.00
G1 F2100 X15.986 Y0.00 E15.54386
G0 F2400 X15.771 Y-2.332
G1 F2100 X15.263 Y-2.332 E15.55864
G0 F2400 X14.688 Y-4.665
G1 F2100 X14.099 Y-4.665 E15.57579
G0 F2400 X13.998 Y-4.791
G1 F2100 X13.998 Y-5.527 E15.59721
G0 F2400 X12.112 Y-6.998
G1 F2100 X10.918 Y-6.998 E15.63195
G0 F2400 X11.665 Y-7.216
G1 F2100 X11.665 Y-6.676 E15.64767
G0 F2400 X9.332 Y-7.392
G1 F2100 X9.332 Y-7.866 E15.66146
G1 F2400 E11.16146
G0 F2400 X7.877 Y7.934
G0 X7.877 Y13.722
G0 X8.349 Y14.209
G0 X8.914 Y14.537
G1 F2400 E15.66146
G1 F2100 X8.514 Y14.643 E15.67351
G1 X8.514 Y14.428 E15.67976
G1 X9.502 Y14.461 E15.70853
G1 X10.527 Y14.576 E15.73855
G1 X11.448 Y14.752 E15.76584
G1 X12.396 Y15.011 E15.79444
G1 X13.346 Y15.353 E15.82382
G1 X14.232 Y15.753 E15.85212
G1 X14.65 Y15.983 E15.866
G1 X14.265 Y15.791 E15.87852
G1 X13.347 Y15.42 E15.90734
G1 X11.973 Y14.992 E15.94922
G1 X8.914 Y14.537 E16.03922
G1 F2400 E11.53922
G0 F2400 X8.355 Y14.943
G0 X7.877 Y15.434
G0 X7.876 Y24.608
G0 X8.101 Y24.997
G0 X10.441 Y26.352
G0 X10.655 Y26.409
G0 X16.798 Y26.404
G0 X17.573 Y26.266
G0 X21.917 Y24.912
G0 X22.35 Y24.432
G0 X22.971 Y22.628
G1 F2400 E16.03922
G1 F2100 X24.035 Y23.072 E16.07278
G1 X24.828 Y23.17 E16.09603
G1 X25.509 Y23.082 E16.11601
G1 X26.27 Y24.398 E16.16025
G1 X25.685 Y24.641 E16.17869
G1 X25.34 Y24.606 E16.18878
G1 X24.825 Y24.673 E16.2039
G1 X24.243 Y24.598 E16.22097
G1 X23.896 Y24.431 E16.23218
G1 X22.563 Y24.316 E16.27112
G1 X22.563 Y22.105 E16.33547
G1 X22.971 Y22.628 E16.35477
G0 F2400 X23.33 Y22.93
G1 F2100 X23.33 Y24.241 E16.39292
G0 F2400 X22.703 Y23.33
G1 F2100 X25.492 Y23.33 E16.47409
G0 F2400 X25.663 Y23.628
G1 F2100 X25.663 Y24.498 E16.49941
G1 F2400 E11.99941
G0 F2400 X16.798 Y26.404
G0 X10.655 Y26.409
G0 X10.441 Y26.352
G0 X8.101 Y24.997
G0 X6.494 Y22.995
G0 X5.319 Y22.995
G0 X5.229 Y22.71
G0 X5.329 Y22.71
;TYPE:WALL-INNER
G1 F2400 E16.49941
G1 F2100 X5.329 Y23.012 E16.5082
G1 X5.067 Y22.861 E16.51319
G1 X-17.658 Y9.74 E17.27687
G1 X-19.014 Y8.835 E17.32431
G1 X-20.234 Y7.764 E17.37156
G1 X-21.302 Y6.547 E17.41868
G1 X-22.204 Y5.198 E17.46591
G1 X-22.923 Y3.739 E17.51324
G1 X-23.442 Y2.211 E17.56021
G1 X-23.76 Y0.614 E17.6076
G1 X-23.865 Y-1.003 E17.65476
G1 X-23.76 Y-2.62 E17.70191
G1 X-23.442 Y-4.216 E17.74928
G1 X-22.921 Y-5.751 E17.79645
G1 X-22.208 Y-7.198 E17.8434
G1 X-21.302 Y-8.552 E17.89081
G1 X-20.234 Y-9.77 E17.93795
G1 X-19.014 Y-10.84 E17.98518
G1 X-17.658 Y-11.745 E18.03262
G1 X5.067 Y-24.866 E18.7963
G1 X5.329 Y-25.017 E18.8051
G1 X5.329 Y-24.715 E18.81009
G1 X5.329 Y-24.714 E18.81012
G1 X5.329 Y-9.995 E19.23848
G1 X4.675 Y-9.952 E19.25755
G1 X3.518 Y-9.722 E19.29188
G1 X2.399 Y-9.342 E19.32628
G1 X1.341 Y-8.82 E19.36061
G1 X0.359 Y-8.163 E19.395
G1 X-.529 Y-7.385 E19.42935
G1 X-1.307 Y-6.497 E19.46371
G1 X-1.964 Y-5.516 E19.49807
G1 X-2.483 Y-4.461 E19.53229
G1 X-2.866 Y-3.339 E19.56679
G1 X-3.096 Y-2.18 E19.60118
G1 X-3.172 Y-1.003 E19.63551
G1 X-3.096 Y0.175 E19.66986
G1 X-2.866 Y1.333 E19.70422
G1 X-2.485 Y2.452 E19.73862
G1 X-1.964 Y3.51 E19.77294
G1 X-1.307 Y4.492 E19.80733
G1 X-.529 Y5.38 E19.84169
G1 X0.359 Y6.158 E19.87605
G1 X1.341 Y6.815 E19.91043
G1 X2.399 Y7.336 E19.94475
G1 X3.518 Y7.717 E19.97915
G1 X4.676 Y7.947 E20.01351
G1 X5.329 Y7.989 E20.03256
G1 X5.329 Y12.259 E20.15683
G1 X5.329 Y12.26 E20.15685
G1 X5.329 Y12.443 E20.16218
G1 X5.146 Y12.434 E20.16558
G1 X4.496 Y12.398 E20.18453
G1 X3.174 Y12.196 E20.22345
G1 X1.853 Y11.852 E20.26317
G1 X0.584 Y11.384 E20.30254
G1 X-.634 Y10.79 E20.34197
G1 X-1.77 Y10.087 E20.38085
G1 X-2.852 Y9.256 E20.42056
G1 X-3.846 Y8.321 E20.46027
G1 X-4.728 Y7.306 E20.49941
G1 X-5.502 Y6.21 E20.53846
G1 X-6.172 Y5.029 E20.57797
G1 X-6.442 Y4.417 E20.59744
G1 X-6.513 Y4.254 E20.60261
G1 X-6.349 Y4.186 E20.60593
G1 X-5.697 Y3.915 E20.62648
G1 X-7.371 Y-.128 E20.75383
G1 X-7.437 Y-.289 E20.75889
G1 X-7.598 Y-.222 E20.76217
G1 X-8.205 Y0.03 E20.7813
G1 X-8.411 Y0.115 E20.78778
G1 X-8.677 Y0.225 E20.79616
G1 X-8.475 Y-0.038 E20.79622
G1 X-8.39 Y-.244 E20.80112
G1 X-8.282 Y-.504 E20.80931
G1 X-8.217 Y-1.013 E20.82424
G1 X-8.286 Y-1.511 E20.83887
G1 X-8.478 Y-1.971 E20.85338
G1 X-8.789 Y-2.372 E20.86815
G1 X-9.19 Y-2.678 E20.88283
G1 X-9.657 Y-2.868 E20.8975
G1 X-10.156 Y-2.932 E20.91214
G1 X-10.655 Y-2.863 E20.9268
G1 X-11.118 Y-2.668 E20.94142
G1 X-11.511 Y-2.367 E20.95583
G1 X-11.818 Y-1.968 E20.97048
G1 X-12.011 Y-1.502 E20.98516
G1 X-12.076 Y-1.003 E20.99981
G1 X-12.011 Y-.503 E21.01448
