;FLAVOR:Marlin
;TIME:971
;Filament used: 0.634905m
;Layer height: 0.15
;Generated with Cura_SteamEngine 3.0.3
M104 S205
M109 S205
M82 ; absolute extrusion mode
G21 ;metric values
G90 ;absolute positioning
M82 ;set extruder to absolute mode
M107 ;start with the fan off
G28 ;Home all axes (max endstops)
G1 Z15.0 F9000 ;move the platform down 15mm
G92 E0 ;zero the extruded length
G1 F200 E3 ;extrude 3mm of feed stock
G92 E0 ;zero the extruded length again
G1 F9000
;Put printing message on LCD screen
M117 Printing...
;LAYER_COUNT:127
;LAYER:0
M107
G0 F3360 X12.354 Y-3.23 Z0.15
;TYPE:SKIRT
G1 F2700 X12.818 Y2.231 E0.13672
G1 X13.581 Y7.597 E0.27192
G1 X14.413 Y11.881 E0.38078
G1 X14.481 Y12.443 E0.3949
G1 X14.469 Y13.008 E0.409
G1 X14.378 Y13.566 E0.4231
G1 X14.209 Y14.105 E0.43719
G1 X13.941 Y14.659 E0.45254
G1 X8.009 Y24.832 E0.7463
G1 X7.691 Y25.299 E0.7604
G1 X7.31 Y25.716 E0.77449
G1 X6.873 Y26.076 E0.78861
G1 X6.563 Y26.276 E0.79781
G1 X6.229 Y26.47 E0.80745
G1 X5.721 Y26.719 E0.82156
G1 X5.184 Y26.893 E0.83564
G1 X4.627 Y26.99 E0.84974
G1 X4.272 Y27.011 E0.85862
G1 X2.126 Y27.039 E0.91215
G1 X1.562 Y27.006 E0.92625
G1 X1.05 Y26.906 E0.93926
G1 X-2.798 Y25.887 E1.03856
G1 X-5.463 Y25.272 E1.10678
G1 X-8.062 Y24.754 E1.17289
G1 X-15.531 Y23.61 E1.36138
G1 X-16.082 Y23.485 E1.37547
G1 X-16.61 Y23.284 E1.38956
G1 X-17.105 Y23.01 E1.40368
G1 X-17.45 Y22.758 E1.41433
G1 X-17.832 Y22.447 E1.42662
G1 X-18.245 Y22.06 E1.44074
G1 X-18.598 Y21.619 E1.45483
G1 X-18.77 Y21.348 E1.46284
G1 X-24.562 Y11.333 E1.75143
G1 X-24.809 Y10.824 E1.76555
G1 X-24.983 Y10.286 E1.77965
G1 X-25.079 Y9.729 E1.79375
G1 X-25.096 Y9.164 E1.80785
G1 X-25.032 Y8.602 E1.82196
G1 X-24.89 Y8.055 E1.83606
G1 X-24.673 Y7.533 E1.85016
G1 X-24.459 Y7.16 E1.86089
G1 X-20.661 Y1.279 E2.03552
G1 X-18.004 Y-3.463 E2.17112
G1 X-15.633 Y-8.326 E2.30607
G1 X-13.534 Y-13.322 E2.44125
G1 X-12.176 Y-17.018 E2.53948
G1 X-11.98 Y-17.464 E2.55163
G1 X-11.546 Y-18.31 E2.57535
G1 X-11.231 Y-18.825 E2.59041
G1 X-10.487 Y-19.856 E2.62212
G1 X-10.124 Y-20.29 E2.63624
G1 X-9.6 Y-20.747 E2.65358
G1 X-8.311 Y-21.687 E2.69338
G1 X-7.832 Y-21.987 E2.70747
G1 X-7.315 Y-22.216 E2.72158
G1 X-6.639 Y-22.396 E2.73903
G1 X-1.764 Y-23.243 E2.86246
G1 X-1.201 Y-23.3 E2.87657
G1 X-.636 Y-23.277 E2.89068
G1 X-0.08 Y-23.175 E2.90478
G1 X0.456 Y-22.996 E2.91888
G1 X0.812 Y-22.827 E2.92871
G1 X5.3 Y-20.42 E3.05575
G1 X5.331 Y-20.403 E3.05663
G1 X6.769 Y-19.615 E3.09753
G1 X7.319 Y-19.251 E3.11398
G1 X7.726 Y-18.931 E3.1269
G1 X8.145 Y-18.552 E3.14099
G1 X8.403 Y-18.254 E3.15083
G1 X8.891 Y-17.631 E3.17057
G1 X9.207 Y-17.162 E3.18467
G1 X9.426 Y-16.721 E3.19696
G1 X9.735 Y-15.99 E3.21675
G1 X9.959 Y-15.285 E3.23521
G1 X10.969 Y-10.651 E3.35352
G1 X12.121 Y-6.337 E3.4649
G1 X12.228 Y-5.781 E3.47902
G1 X12.252 Y-5.486 E3.48641
G1 X12.354 Y-3.23 E3.54274
G0 F3360 X11.955 Y-3.203
G1 F2700 X12.42 Y2.267 E3.67968
G1 X13.188 Y7.674 E3.81591
G1 X14.02 Y11.958 E3.92478
G1 X14.083 Y12.49 E3.93814
G1 X14.066 Y13.026 E3.95152
G1 X13.969 Y13.554 E3.96491
G1 X13.795 Y14.061 E3.97828
G1 X13.596 Y14.457 E3.98933
G1 X7.664 Y24.63 E4.28309
G1 X7.36 Y25.072 E4.29647
G1 X6.994 Y25.464 E4.30985
G1 X6.362 Y25.93 E4.32944
G1 X6.028 Y26.124 E4.33908
G1 X5.546 Y26.358 E4.35244
G1 X5.034 Y26.518 E4.36582
G1 X4.267 Y26.611 E4.38509
G1 X2.121 Y26.639 E4.43863
G1 X1.586 Y26.606 E4.452
G1 X1.152 Y26.519 E4.46304
G1 X-2.703 Y25.498 E4.56252
G1 X-5.361 Y24.885 E4.63057
G1 X-8.014 Y24.356 E4.69805
G1 X-15.47 Y23.214 E4.88621
G1 X-15.993 Y23.094 E4.89959
G1 X-16.492 Y22.897 E4.91298
G1 X-16.956 Y22.629 E4.92634
G1 X-17.198 Y22.448 E4.93388
G1 X-17.58 Y22.137 E4.94617
G1 X-17.969 Y21.768 E4.95954
G1 X-18.423 Y21.147 E4.97873
G1 X-24.215 Y11.132 E5.26733
G1 X-24.449 Y10.649 E5.28072
G1 X-24.607 Y10.137 E5.29408
G1 X-24.688 Y9.607 E5.30746
G1 X-24.69 Y9.071 E5.32083
G1 X-24.611 Y8.54 E5.33422
G1 X-24.455 Y8.027 E5.3476
G1 X-24.123 Y7.377 E5.3658
G1 X-20.32 Y1.489 E5.54065
G1 X-17.653 Y-3.271 E5.67676
G1 X-15.262 Y-8.174 E5.81283
G1 X-13.159 Y-13.181 E5.9483
G1 X-11.8 Y-16.88 E6.0466
G1 X-11.624 Y-17.281 E6.05753
G1 X-11.19 Y-18.127 E6.08125
G1 X-10.906 Y-18.591 E6.09482
G1 X-10.162 Y-19.622 E6.12653
G1 X-9.817 Y-20.032 E6.1399
G1 X-9.364 Y-20.424 E6.15484
G1 X-8.075 Y-21.364 E6.19464
G1 X-7.62 Y-21.647 E6.20801
G1 X-7.127 Y-21.859 E6.22139
G1 X-6.57 Y-22.002 E6.23574
G1 X-1.695 Y-22.849 E6.35917
G1 X-1.162 Y-22.901 E6.37253
G1 X-.626 Y-22.873 E6.38591
G1 X-.1 Y-22.766 E6.3993
G1 X0.622 Y-22.475 E6.41872
G1 X5.11 Y-20.068 E6.54576
G1 X5.139 Y-20.052 E6.54659
G1 X6.577 Y-19.264 E6.58749
G1 X7.072 Y-18.937 E6.60229
G1 X7.479 Y-18.617 E6.6152
G1 X7.875 Y-18.255 E6.62859
G1 X8.088 Y-18.007 E6.63674
G1 X8.576 Y-17.384 E6.65648
G1 X8.874 Y-16.938 E6.66986
G1 X9.058 Y-16.566 E6.68022
G1 X9.367 Y-15.835 E6.70001
G1 X9.568 Y-15.2 E6.71663
G1 X10.583 Y-10.544 E6.8355
G1 X11.734 Y-6.233 E6.94681
G1 X11.852 Y-5.468 E6.96612
G1 X11.955 Y-3.203 E7.02267
G0 F3360 X11.556 Y-3.176
G1 F2700 X12.023 Y2.323 E7.16034
G1 X12.794 Y7.744 E7.29693
G1 X13.627 Y12.034 E7.40594
G1 X13.684 Y12.536 E7.41855
G1 X13.661 Y13.041 E7.43116
G1 X13.559 Y13.537 E7.44379
G1 X13.38 Y14.009 E7.45638
G1 X13.25 Y14.256 E7.46334
G1 X7.318 Y24.429 E7.7571
G1 X7.03 Y24.844 E7.7697
G1 X6.68 Y25.209 E7.78232
G1 X6.161 Y25.584 E7.79829
G1 X5.827 Y25.778 E7.80792
G1 X5.371 Y25.997 E7.82054
G1 X4.887 Y26.141 E7.83314
G1 X4.262 Y26.211 E7.84883
G1 X2.116 Y26.239 E7.90236
G1 X1.611 Y26.205 E7.91499
G1 X1.255 Y26.132 E7.92406
G1 X-2.6 Y25.111 E8.02353
G1 X-5.29 Y24.491 E8.0924
G1 X-7.919 Y23.967 E8.15927
G1 X-15.41 Y22.819 E8.34831
G1 X-15.902 Y22.703 E8.36092
G1 X-16.37 Y22.511 E8.37354
G1 X-16.945 Y22.138 E8.39064
G1 X-17.327 Y21.827 E8.40292
G1 X-17.693 Y21.477 E8.41556
G1 X-18.077 Y20.947 E8.43188
G1 X-23.869 Y10.932 E8.72048
G1 X-24.087 Y10.476 E8.73309
G1 X-24.23 Y9.991 E8.7457
G1 X-24.295 Y9.49 E8.7583
G1 X-24.28 Y8.984 E8.77093
G1 X-24.186 Y8.487 E8.78355
G1 X-24.015 Y8.012 E8.79614
G1 X-23.787 Y7.594 E8.80802
G1 X-19.975 Y1.691 E8.9833
G1 X-17.295 Y-3.092 E9.12007
G1 X-14.901 Y-8.001 E9.25631
G1 X-12.79 Y-13.027 E9.39229
G1 X-11.425 Y-16.742 E9.49102
G1 X-11.268 Y-17.099 E9.50075
G1 X-10.834 Y-17.945 E9.52447
G1 X-10.582 Y-18.357 E9.53652
G1 X-9.838 Y-19.388 E9.56823
G1 X-9.511 Y-19.773 E9.58083
G1 X-9.128 Y-20.101 E9.59341
G1 X-7.839 Y-21.041 E9.63321
G1 X-7.409 Y-21.305 E9.6458
G1 X-6.942 Y-21.499 E9.65841
G1 X-6.502 Y-21.608 E9.66972
G1 X-1.627 Y-22.455 E9.79315
G1 X-1.123 Y-22.502 E9.80577
G1 X-.619 Y-22.469 E9.81837
G1 X-.126 Y-22.357 E9.83098
G1 X0.433 Y-22.122 E9.84611
G1 X4.921 Y-19.715 E9.97315
G1 X4.947 Y-19.701 E9.97389
G1 X6.385 Y-18.913 E10.01479
G1 X6.825 Y-18.623 E10.02793
G1 X7.232 Y-18.303 E10.04085
G1 X7.603 Y-17.96 E10.05345
G1 X7.773 Y-17.76 E10.06
G1 X8.261 Y-17.137 E10.07974
G1 X8.541 Y-16.716 E10.09235
G1 X8.689 Y-16.41 E10.10083
G1 X8.998 Y-15.679 E10.12063
G1 X9.178 Y-15.115 E10.1354
G1 X10.197 Y-10.443 E10.25468
G1 X11.348 Y-6.13 E10.36604
G1 X11.453 Y-5.45 E10.3832
G1 X11.556 Y-3.176 E10.43998
G1 F2400 E5.93998
G0 F3360 X7.835 Y-8.135
G0 X7.141 Y-8.463
G0 X6.288 Y-8.286
G0 X4.196 Y-7.077
G0 X4.265 Y-6.957
;TYPE:SUPPORT
G1 F2400 E10.43998
G1 F2700 X-3.59 Y-2.423 E10.66623
G1 X-3.888 Y-1.914 E10.68094
G1 X-3.889 Y1.907 E10.77625
G1 X-3.591 Y2.416 E10.79097
G1 X4.185 Y6.905 E11.01494
G1 X1.728 Y6.474 E11.07717
G1 X-1.117 Y5.988 E11.14916
G1 X-3.71 Y5.52 E11.21489
G1 X-4.138 Y5.465 E11.22566
G1 X-8.112 Y4.769 E11.3263
G1 X-8.213 Y4.714 E11.32917
G1 X-8.265 Y4.624 E11.33176
G1 X-8.265 Y1.998 E11.39727
G1 X-6.639 Y0.143 E11.4588
G1 X-6.638 Y-.406 E11.47249
G1 X-8.226 Y-2.234 E11.5329
G1 X-8.227 Y-3.556 E11.56587
G1 X-8.265 Y-3.954 E11.57585
G1 X-8.265 Y-4.887 E11.59912
G1 X-8.214 Y-4.974 E11.60164
G1 X-8.146 Y-5.013 E11.60359
G1 X-6.168 Y-5.345 E11.65362
G1 X-3.292 Y-5.79 E11.72622
G1 X-2.9 Y-5.829 E11.73605
G1 X-.897 Y-6.163 E11.7867
G1 X1.995 Y-6.611 E11.8597
G1 X2.417 Y-6.546 E11.87035
G1 X2.936 Y-6.606 E11.88339
G1 X3.312 Y-6.721 E11.89319
G1 X3.609 Y-6.862 E11.9014
G1 X4.265 Y-6.957 E11.91793
G1 F2400 E7.41793
G0 F3360 X4.196 Y-7.077
G0 X2.666 Y-6.414
G1 F2400 E11.91793
G1 F2700 X2.666 Y-6.219 E11.92279
G0 F3360 X1.128 Y-5.332
G1 F2700 X-5.206 Y-5.332 E12.0808
G0 F3360 X-5.332 Y-5.313
G1 F2700 X-5.332 Y5.093 E12.34038
G0 F3360 X-3.921 Y5.332
G1 F2700 X1.14 Y5.332 E12.46662
G0 F3360 X0.00 Y4.674
G1 F2700 X0.00 Y6.017 E12.50012
G0 F3360 X2.666 Y6.213
G1 F2700 X2.666 Y6.476 E12.50668
G0 F3360 X-2.666 Y5.545
G1 F2700 X-2.666 Y3.135 E12.5668
G0 F3360 X-3.477 Y2.666
G1 F2700 X-8.105 Y2.665 E12.68225
G0 F3360 X-7.998 Y1.935
G1 F2700 X-7.998 Y4.626 E12.74938
G0 F3360 X-6.478 Y0.00
G1 F2700 X-4.049 Y0.00 E12.80997
G1 F2400 E8.30997
G0 F3360 X-4.026 Y-1.952
G0 X-3.691 Y-2.524
G0 X-3.489 Y-2.666
G1 F2400 E12.80997
G1 F2700 X-8.067 Y-2.666 E12.92417
G0 F3360 X-7.998 Y-2.216
G1 F2700 X-7.998 Y-4.876 E12.99052
G0 F3360 X-2.666 Y-5.707
G1 F2700 X-2.666 Y-3.14 E13.05455
G0 F3360 X0.00 Y-4.68
G1 F2700 X0.00 Y-6.141 E13.091
G0 F3360 X-1.576 Y-8.079
G1 F2700 X-5.878 Y-8.748 E13.1996
G1 X-5.92 Y-8.763 E13.20072
G1 X-6.305 Y-9.01 E13.21213
G1 X-7.063 Y-9.593 E13.23598
G1 X-7.649 Y-10.359 E13.26004
G1 X-7.908 Y-10.766 E13.27207
G1 X-8.124 Y-11.182 E13.28376
G1 X-8.327 Y-11.675 E13.29706
G1 X-8.467 Y-12.136 E13.30908
G1 X-8.563 Y-12.563 E13.32
G1 X-8.624 Y-13.047 E13.33217
G1 X-8.645 Y-13.517 E13.3439
G1 X-8.615 Y-14.077 E13.35789
G1 X-8.564 Y-14.454 E13.36738
G1 X-8.459 Y-14.929 E13.37952
G1 X-8.31 Y-15.399 E13.39182
G1 X-8.133 Y-15.825 E13.40333
G1 X-7.913 Y-16.251 E13.41529
G1 X-7.658 Y-16.651 E13.42712
G1 X-7.358 Y-17.04 E13.43937
G1 X-7.352 Y-17.058 E13.43985
G1 X-7.053 Y-17.445 E13.45205
G1 X-6.273 Y-18.041 E13.47653
G1 X-5.915 Y-18.266 E13.48708
G1 X-5.884 Y-18.278 E13.48791
G1 X-1.577 Y-19.024 E13.59695
G1 X-1.574 Y-17.386 E13.63781
G1 X-1.451 Y-17.293 E13.64165
G1 X-2.068 Y-17.097 E13.6578
G1 X-2.731 Y-16.859 E13.67538
G1 X-3.435 Y-16.583 E13.69424
G1 X-4.105 Y-16.291 E13.71247
G1 X-4.828 Y-15.949 E13.73242
G1 X-5.464 Y-15.623 E13.75025
G1 X-6.677 Y-14.949 E13.78486
G1 X-6.934 Y-14.511 E13.79753
G1 X-6.932 Y-12.512 E13.8474
G1 X-6.675 Y-12.074 E13.86007
G1 X-5.513 Y-11.429 E13.89322
G1 X-4.808 Y-11.073 E13.91292
G1 X-4.173 Y-10.782 E13.93034
G1 X-3.352 Y-10.437 E13.95256
G1 X-2.757 Y-10.217 E13.96838
G1 X-2.008 Y-9.967 E13.98808
G1 X-1.461 Y-9.806 E14.0023
G1 X-1.575 Y-9.717 E14.00591
G1 X-1.575 Y-9.343 E14.01524
G1 X-1.708 Y-9.241 E14.01942
G1 X-1.744 Y-8.662 E14.03389
G1 X-1.576 Y-8.495 E14.0398
G1 X-1.576 Y-8.079 E14.05018
G0 F3360 X-2.666 Y-8.411
G1 F2700 X-2.666 Y-10.018 E14.09027
G0 F3360 X-4.298 Y-10.664
G1 F2700 X-7.653 Y-10.664 E14.17396
G0 F3360 X-7.998 Y-11.298
G1 F2700 X-7.998 Y-15.732 E14.28456
G0 F3360 X-7.863 Y-15.996
G1 F2700 X-5.085 Y-15.996 E14.35386
G0 F3360 X-5.332 Y-15.869
G1 F2700 X-5.332 Y-18.212 E14.41231
G0 F3360 X-2.733 Y-18.662
G1 F2700 X-1.735 Y-18.662 E14.4372
G0 F3360 X-2.666 Y-18.674
G1 F2700 X-2.666 Y-17.051 E14.47769
G0 F3360 X-7.091 Y-13.33
G1 F2700 X-8.477 Y-13.33 E14.51226
G0 F3360 X-5.332 Y-11.158
G1 F2700 X-5.332 Y-8.826 E14.57043
G1 F2400 E10.07043
G0 F3360 X-2.194 Y-3.389
G0 X-1.374 Y-1.97
G0 X-1.1 Y-2.014
G0 X-1.149 Y-2.1
;TYPE:WALL-INNER
G1 F2400 E14.57043
G1 F2700 X-.677 Y-2.373 E14.58404
G1 X-.658 Y-2.384 E14.58458
G1 X6.61 Y-6.58 E14.79393
G1 X6.783 Y-6.68 E14.79891
G1 X6.883 Y-6.507 E14.80213
G1 X7.471 Y-5.488 E14.83148
G1 X7.35 Y-5.403 E14.83517
G1 X6.798 Y-4.923 E14.85342
G1 X6.298 Y-4.387 E14.8717
G1 X5.861 Y-3.8 E14.88996
G1 X5.487 Y-3.17 E14.90823
G1 X5.185 Y-2.503 E14.9265
G1 X4.954 Y-1.809 E14.94474
G1 X4.798 Y-1.094 E14.963
G1 X4.72 Y-.366 E14.98126
G1 X4.72 Y0.366 E14.99952
G1 X4.798 Y1.094 E15.01779
G1 X4.954 Y1.809 E15.03604
G1 X5.185 Y2.503 E15.05429
G1 X5.487 Y3.17 E15.07255
G1 X5.861 Y3.8 E15.09083
G1 X6.298 Y4.387 E15.10908
G1 X6.798 Y4.923 E15.12737
G1 X7.35 Y5.403 E15.14561
G1 X7.472 Y5.488 E15.14932
G1 X6.786 Y6.676 E15.18354
G1 X-.648 Y2.385 E15.39766
G1 X-.675 Y2.369 E15.39844
G1 X-1.146 Y2.097 E15.41201
G1 X-1.618 Y1.824 E15.42561
G1 X-1.648 Y1.807 E15.42647
G1 X-2.389 Y1.379 E15.44782
G1 X-2.389 Y0.4 E15.47224
G1 X-2.389 Y0.00 E15.48222
G1 X-2.389 Y-.402 E15.49225
G1 X-2.388 Y-1.385 E15.51677
G1 X-1.64 Y-1.817 E15.53832
G1 X-1.621 Y-1.828 E15.53886
G1 X-1.149 Y-2.1 E15.55245
G0 F3360 X-.988 Y-1.823
G1 F2700 X-1.425 Y-1.489 E15.56466
G1 X-1.438 Y-1.472 E15.56519
G1 X-1.76 Y-1.052 E15.57839
G1 X-1.97 Y-.544 E15.5921
G1 X-1.989 Y-.399 E15.59575
G1 X-2.041 Y0.00 E15.60513
G1 X-1.99 Y0.397 E15.61447
G1 X-1.97 Y0.544 E15.61817
G1 X-1.76 Y1.052 E15.63188
G1 X-1.446 Y1.462 E15.64477
G1 X-1.425 Y1.489 E15.6456
G1 X-.988 Y1.823 E15.65773
G1 X-.481 Y2.034 E15.66978
G1 X-.45 Y2.038 E15.67055
G1 X0.064 Y2.105 E15.68348
G1 X0.608 Y2.034 E15.69716
G1 X1.117 Y1.823 E15.71091
G1 X1.552 Y1.489 E15.72459
G1 X1.888 Y1.052 E15.73834
G1 X2.097 Y0.544 E15.75204
G1 X2.17 Y0.00 E15.76573
G1 X2.097 Y-.544 E15.77942
G1 X1.888 Y-1.052 E15.79313
G1 X1.552 Y-1.489 E15.80688
G1 X1.117 Y-1.823 E15.82056
G1 X0.608 Y-2.034 E15.8343
G1 X0.064 Y-2.105 E15.84799
G1 X-.46 Y-2.036 E15.86117
G1 X-.481 Y-2.034 E15.86169
G1 X-.988 Y-1.823 E15.87388
G0 F3360 X-.377 Y-1.644
;TYPE:WALL-OUTER
G1 F2700 X-.787 Y-1.474 E15.88495
G1 X-1.14 Y-1.204 E15.89603
G1 X-1.41 Y-.851 E15.90712
G1 X-1.58 Y-.44 E15.91822
G1 X-1.638 Y0.00 E15.92929
G1 X-1.58 Y0.44 E15.94036
G1 X-1.41 Y0.851 E15.95145
G1 X-1.14 Y1.204 E15.96254
G1 X-.787 Y1.474 E15.97362
G1 X-.377 Y1.644 E15.9847
G1 X0.064 Y1.702 E15.99579
G1 X0.504 Y1.644 E16.00686
G1 X0.915 Y1.474 E16.01796
G1 X1.267 Y1.204 E16.02902
G1 X1.538 Y0.851 E16.04012
G1 X1.707 Y0.44 E16.05121
G1 X1.766 Y0.00 E16.06228
G1 X1.707 Y-.44 E16.07336
G1 X1.538 Y-.851 E16.08444
G1 X1.267 Y-1.204 E16.09554
G1 X0.915 Y-1.474 E16.10661
G1 X0.504 Y-1.644 E16.11771
G1 X0.064 Y-1.702 E16.12878
G1 X-.377 Y-1.644 E16.13987
G0 F3360 X-.562 Y-1.568
G0 X-.752 Y-2.029
G0 X6.758 Y-6.584
G0 X7.02 Y-7.071
G1 F2700 X8.001 Y-5.37 E16.18885
G1 X7.596 Y-5.087 E16.20118
G1 X7.076 Y-4.635 E16.21837
G1 X6.606 Y-4.13 E16.23557
G1 X6.194 Y-3.578 E16.25276
G1 X5.842 Y-2.985 E16.26996
G1 X5.558 Y-2.357 E16.28715
G1 X5.34 Y-1.703 E16.30435
G1 X5.193 Y-1.03 E16.32153
G1 X5.12 Y-.345 E16.33872
G1 X5.12 Y0.345 E16.35593
G1 X5.193 Y1.03 E16.37311
G1 X5.34 Y1.703 E16.3903
G1 X5.558 Y2.357 E16.40749
G1 X5.842 Y2.985 E16.42469
G1 X6.194 Y3.578 E16.44189
G1 X6.606 Y4.13 E16.45907
G1 X7.076 Y4.635 E16.47628
G1 X7.596 Y5.087 E16.49347
G1 X8.001 Y5.37 E16.50579
G1 X7.022 Y7.067 E16.55466
G1 X6.957 Y7.18 E16.55791
G1 X6.82 Y7.157 E16.56138
G1 X6.707 Y7.092 E16.56463
G1 X-2.789 Y1.609 E16.83816
G1 X-2.788 Y-1.616 E16.91861
G1 X6.705 Y-7.096 E17.19204
G1 X6.816 Y-7.16 E17.19523
G1 X6.956 Y-7.182 E17.19877
G1 X7.02 Y-7.071 E17.20196
G0 F3360 X7.119 Y-6.898
G0 X6.758 Y-6.584
G0 X6.637 Y-6.134
;TYPE:WALL-INNER
G1 F2700 X6.953 Y-5.587 E17.21772
G1 X6.52 Y-5.211 E17.23203
G1 X5.99 Y-4.643 E17.25141
G1 X5.527 Y-4.022 E17.27073
G1 X5.131 Y-3.355 E17.29008
G1 X4.812 Y-2.649 E17.30941
G1 X4.568 Y-1.915 E17.3287
G1 X4.402 Y-1.158 E17.34803
G1 X4.32 Y-.388 E17.36735
G1 X4.32 Y0.388 E17.38671
G1 X4.402 Y1.158 E17.40602
G1 X4.568 Y1.915 E17.42535
G1 X4.812 Y2.649 E17.44465
G1 X5.131 Y3.355 E17.46398
G1 X5.527 Y4.022 E17.48332
G1 X5.99 Y4.643 E17.50265
G1 X6.52 Y5.211 E17.52203
G1 X6.953 Y5.588 E17.53635
G1 X6.64 Y6.13 E17.55196
G1 X0.311 Y2.477 E17.73425
G1 X0.712 Y2.424 E17.74434
G1 X1.319 Y2.173 E17.76072
G1 X1.838 Y1.775 E17.77704
G1 X2.238 Y1.254 E17.79342
G1 X2.487 Y0.648 E17.80977
G1 X2.574 Y0.00 E17.82608
G1 X2.487 Y-.648 E17.84239
G1 X2.238 Y-1.254 E17.85873
G1 X1.838 Y-1.775 E17.87511
G1 X1.319 Y-2.173 E17.89143
G1 X0.712 Y-2.424 E17.90781
G1 X0.303 Y-2.478 E17.91811
G1 X6.637 Y-6.134 E18.10054
G0 F3360 X6.336 Y-5.541
G1 F2700 X6.017 Y-5.295 E18.11134
G1 X5.702 Y-5.045 E18.12503
G0 F3360 X5.668 Y-4.513
;TYPE:SKIN
G1 F2700 X5.127 Y-5.055 E18.14414
G0 F3360 X4.768 Y-4.847
G1 F2700 X5.427 Y-4.189 E18.16737
G1 X5.497 Y-4.119
G0 F3360 X5.209 Y-3.841
G1 F2700 X4.41 Y-4.64 E18.19555
G1 X4.34 Y-4.71
G0 F3360 X4.051 Y-4.433
